X:580
T:Reel 580
M:4/4
K:Amaj
L:1/8
ED|C>A, (3A,G,A, CA,EA,|C>A, (3A,G,A, CEAE|C>A, (3A,G,A, CA,CE|DCB,A, G,B,ED|C>A, (3A,G,A, CA,EA,|CA,A,C DFED|CB,CD EF=GE|DB,G,B, =GEDB,|EAAG ABAG|EAAG cABG|EF=GE DB,B,E|A,FGE DB,G,B,|EAAG ABAG|EAAB cABA|cABA cABA|E^DB,C DCG,B,|
